public/assets/img/vector7.svg

<svg width="68" height="69" viewBox="0 0 68 69" fill="none" xmlns="http://www.w3.org/2000/svg">
<path d="M46.5086 0.000241911C40.1463 -0.0302031 34.1008 2.81439 30.0135 7.76169C25.9262 12.709 24.2212 19.2456 25.3614 25.5968C16.0896 23.91 6.81208 28.5271 2.45055 36.9988C-1.91098 45.4704 -0.346369 55.8345 6.31437 62.593C12.9751 69.3515 23.1893 70.939 31.5384 66.5135C39.8875 62.088 44.4379 52.6743 42.7755 43.2664C50.7774 44.7018 58.8926 41.4335 63.7463 34.8208C68.5999 28.2081 69.3614 19.3826 65.714 12.0148C62.0666 4.6469 54.6345 -0.00246703 46.5086 0.000241911ZM34.487 39.878C38.0426 46.4114 36.3162 54.6038 30.4384 59.0905C24.5606 63.5772 16.3245 62.9895 11.1235 57.7121C5.92248 52.4348 5.34322 44.0778 9.76504 38.1138C14.1869 32.1497 22.2608 30.398 28.6997 34.0057C30.2436 36.3184 32.2078 38.3114 34.487 39.878ZM40.8525 47.0611C40.8788 55.3921 35.7057 62.8272 27.9601 65.5907C20.2144 68.3543 11.5936 65.8406 6.47555 59.3263C1.35746 52.812 0.863616 43.7245 5.2448 36.6787C9.62598 29.6329 17.9221 26.1727 25.9203 28.0554C26.1895 28.9601 26.5171 29.8459 26.901 30.7069C19.4281 28.2144 11.2462 31.253 7.12458 38.0514C3.00299 44.8498 4.01966 53.6301 9.58197 59.274C15.1443 64.9179 23.7975 65.9495 30.4976 61.7674C37.1977 57.5854 40.1923 49.2834 37.7359 41.7008C38.5843 42.0894 39.4569 42.4215 40.3479 42.6948C40.6784 44.1262 40.8476 45.591 40.8525 47.0611ZM46.5086 41.322C35.8877 41.322 27.2777 32.5857 27.2777 21.8089C27.2777 11.0322 35.8877 2.29589 46.5086 2.29589C57.1295 2.29589 65.7394 11.0322 65.7394 21.8089C65.7276 32.5807 57.1246 41.31 46.5086 41.322Z" fill="#90A1AE"/>
<path d="M46.5086 4.59155C37.1372 4.59155 29.5402 12.3 29.5402 21.8089C29.5402 31.3178 37.1372 39.0263 46.5086 39.0263C55.88 39.0263 63.477 31.3178 63.477 21.8089C63.4664 12.3045 55.8756 4.6023 46.5086 4.59155ZM46.5086 36.7307C38.3867 36.7307 31.8026 30.05 31.8026 21.8089C31.8026 13.5679 38.3867 6.8872 46.5086 6.8872C54.6304 6.8872 61.2145 13.5679 61.2145 21.8089C61.2052 30.0461 54.6266 36.7212 46.5086 36.7307Z" fill="#90A1AE"/>
<path fill-rule="evenodd" clip-rule="evenodd" d="M21.6216 40.1742C23.3344 40.0328 24.8434 41.3088 25.0153 43.0437C25.0153 43.6777 25.5218 44.1915 26.1465 44.1915C26.7713 44.1915 27.2777 43.6777 27.2777 43.0437C27.1685 40.4708 25.266 38.3429 22.7528 37.983V36.7307C22.7528 36.0967 22.2464 35.5829 21.6216 35.5829C20.9968 35.5829 20.4904 36.0967 20.4904 36.7307V37.983C17.9772 38.3429 16.0747 40.4708 15.9655 43.0437C16.1328 46.0495 18.6581 48.3556 21.6216 48.2089C23.3344 48.0676 24.8434 49.3436 25.0153 51.0785C24.8434 52.8134 23.3344 54.0894 21.6216 53.9481C19.9088 54.0894 18.3998 52.8134 18.2279 51.0785C18.2279 50.4446 17.7215 49.9307 17.0967 49.9307C16.4719 49.9307 15.9655 50.4446 15.9655 51.0785C16.0747 53.6515 17.9772 55.7793 20.4904 56.1393V57.3915C20.4904 58.0255 20.9968 58.5394 21.6216 58.5394C22.2464 58.5394 22.7528 58.0255 22.7528 57.3915V56.1393C25.266 55.7793 27.1685 53.6515 27.2777 51.0785C27.1104 48.0728 24.5851 45.7666 21.6216 45.9133C19.9088 46.0546 18.3998 44.7786 18.2279 43.0437C18.3998 41.3088 19.9088 40.0328 21.6216 40.1742Z" fill="#90A1AE"/>
<path d="M53.2959 18.3655C53.2959 15.8298 51.2701 13.7742 48.771 13.7742V12.6263C48.771 11.9924 48.2646 11.4785 47.6398 11.4785C47.015 11.4785 46.5086 11.9924 46.5086 12.6263V13.7742H45.3774V12.6263C45.3774 11.9924 44.8709 11.4785 44.2461 11.4785C43.6214 11.4785 43.1149 11.9924 43.1149 12.6263V13.7742H40.8525C40.2277 13.7742 39.7212 14.2881 39.7212 14.922C39.7212 15.5559 40.2277 16.0698 40.8525 16.0698H41.9837V20.6611H40.8525C40.2277 20.6611 39.7212 21.175 39.7212 21.8089C39.7212 22.4429 40.2277 22.9568 40.8525 22.9568H41.9837V27.5481H40.8525C40.2277 27.5481 39.7212 28.062 39.7212 28.6959C39.7212 29.3298 40.2277 29.8437 40.8525 29.8437H43.1149V30.9916C43.1149 31.6255 43.6214 32.1394 44.2461 32.1394C44.8709 32.1394 45.3774 31.6255 45.3774 30.9916V29.8437H46.5086V30.9916C46.5086 31.6255 47.015 32.1394 47.6398 32.1394C48.2646 32.1394 48.771 31.6255 48.771 30.9916V29.8437C50.6579 29.8522 52.3502 28.6668 53.0112 26.8735C53.6722 25.0802 53.1619 23.0589 51.7326 21.8089C52.7213 20.9455 53.2917 19.689 53.2959 18.3655ZM51.0335 25.2524C51.0335 26.5203 50.0206 27.5481 48.771 27.5481H44.2461V22.9568H48.771C50.0206 22.9568 51.0335 23.9846 51.0335 25.2524ZM44.2461 20.6611V16.0698H48.771C50.0206 16.0698 51.0335 17.0976 51.0335 18.3655C51.0335 19.6333 50.0206 20.6611 48.771 20.6611H44.2461Z" fill="#90A1AE"/>
<path fill-rule="evenodd" clip-rule="evenodd" d="M54.4272 58.5394H43.1149C42.4901 58.5394 41.9837 59.0533 41.9837 59.6872C41.9837 60.3211 42.4901 60.835 43.1149 60.835H54.4272V63.1307C54.4199 64.0396 54.9485 64.8651 55.7699 65.2278C56.5918 65.6047 57.5562 65.4455 58.2179 64.8237L66.693 56.8027C67.1673 56.3695 67.4392 55.7533 67.4418 55.1058C67.4444 54.4584 67.1774 53.8399 66.7066 53.4029L58.2032 45.3554C57.5392 44.749 56.5856 44.5958 55.7695 44.9645C54.9533 45.3332 54.4274 46.1546 54.4272 47.0611V49.3568H46.5086C45.8838 49.3568 45.3774 49.8707 45.3774 50.5046C45.3774 51.1385 45.8838 51.6524 46.5086 51.6524H54.4272C55.6767 51.6524 56.6896 50.6246 56.6896 49.3568L56.6749 47.0473L65.1591 55.1097L56.6896 63.1307V60.835C56.6896 59.5672 55.6767 58.5394 54.4272 58.5394Z" fill="#90A1AE"/>
<path fill-rule="evenodd" clip-rule="evenodd" d="M9.92699 23.5123C10.3387 23.8924 10.8749 24.1035 11.4315 24.1046C11.7518 24.1041 12.0683 24.0349 12.3603 23.9014C13.1802 23.5394 13.7085 22.7162 13.703 21.8089V19.5133H21.6216C22.2464 19.5133 22.7528 18.9994 22.7528 18.3655C22.7528 17.7315 22.2464 17.2176 21.6216 17.2176H13.703C12.4535 17.2176 11.4406 18.2454 11.4406 19.5133L11.4553 21.8227L2.97108 13.7604L11.4406 5.73937V8.03503C11.4406 9.30288 12.4535 10.3307 13.703 10.3307H25.0153C25.64 10.3307 26.1465 9.81678 26.1465 9.18285C26.1465 8.54892 25.64 8.03503 25.0153 8.03503H13.703V5.73937C13.704 4.82865 13.1744 4.00342 12.3531 3.6361C11.5318 3.26878 10.5741 3.42884 9.91228 4.04403L1.43714 12.065C0.962887 12.4982 0.690967 13.1145 0.688382 13.7619C0.685797 14.4094 0.952787 15.0278 1.42356 15.4649L9.92699 23.5123Z" fill="#90A1AE"/>
</svg>

<svg width="68" height="69" fill="none" xmlns="http://www.w3.org/2000/svg"><path d="M46.509 0C40.146-.03 34.1 2.814 30.014 7.762c-4.088 4.947-5.793 11.484-4.653 17.835-9.271-1.687-18.549 2.93-22.91 11.402-4.362 8.471-2.797 18.835 3.863 25.594 6.661 6.758 16.875 8.346 25.224 3.92 8.35-4.425 12.9-13.839 11.238-23.247 8.001 1.436 16.117-1.832 20.97-8.445 4.854-6.613 5.615-15.438 1.968-22.806C62.067 4.647 54.634-.002 46.509 0ZM34.487 39.878c3.556 6.533 1.83 14.726-4.049 19.212a14.605 14.605 0 0 1-19.314-1.378c-5.202-5.277-5.78-13.634-1.359-19.598 4.422-5.964 12.496-7.716 18.935-4.108a21.83 21.83 0 0 0 5.787 5.872Zm6.365 7.183c.027 8.331-5.146 15.766-12.892 18.53-7.746 2.763-16.366.25-21.484-6.265C1.357 52.812.864 43.724 5.245 36.68c4.381-7.046 12.677-10.506 20.675-8.624.27.905.597 1.79.981 2.652-7.473-2.493-15.655.546-19.776 7.344-4.122 6.799-3.105 15.58 2.457 21.223 5.562 5.644 14.215 6.675 20.916 2.493 6.7-4.182 9.694-12.484 7.238-20.066.848.388 1.72.72 2.612.994.33 1.431.5 2.896.505 4.366Zm5.657-5.739c-10.621 0-19.231-8.736-19.231-19.513 0-10.777 8.61-19.513 19.23-19.513 10.621 0 19.231 8.736 19.231 19.513-.011 10.772-8.614 19.501-19.23 19.513Z" fill="#90A1AE"/><path d="M46.509 4.592c-9.372 0-16.969 7.708-16.969 17.217 0 9.509 7.597 17.217 16.969 17.217 9.371 0 16.968-7.708 16.968-17.217-.01-9.505-7.601-17.207-16.968-17.217Zm0 32.139c-8.122 0-14.706-6.681-14.706-14.922S38.387 6.887 46.509 6.887c8.121 0 14.706 6.68 14.706 14.922-.01 8.237-6.588 14.912-14.706 14.922Z" fill="#90A1AE"/><path fill-rule="evenodd" clip-rule="evenodd" d="M21.622 40.174c1.712-.141 3.221 1.135 3.393 2.87a1.14 1.14 0 0 0 1.131 1.148 1.14 1.14 0 0 0 1.132-1.148c-.11-2.573-2.012-4.701-4.525-5.061v-1.252a1.14 1.14 0 0 0-1.131-1.148 1.14 1.14 0 0 0-1.132 1.148v1.252c-2.513.36-4.415 2.488-4.524 5.06.167 3.007 2.692 5.313 5.656 5.166 1.712-.141 3.221 1.135 3.393 2.87-.172 1.734-1.68 3.01-3.393 2.87-1.713.14-3.222-1.136-3.394-2.87a1.14 1.14 0 0 0-1.131-1.148 1.14 1.14 0 0 0-1.132 1.148c.11 2.572 2.012 4.7 4.525 5.06v1.252a1.14 1.14 0 0 0 1.132 1.148 1.14 1.14 0 0 0 1.13-1.148V56.14c2.514-.36 4.417-2.488 4.526-5.06-.168-3.006-2.693-5.312-5.656-5.166-1.713.142-3.222-1.134-3.394-2.87.172-1.734 1.68-3.01 3.394-2.869Z" fill="#90A1AE"/><path d="M53.296 18.366c0-2.536-2.026-4.592-4.525-4.592v-1.148a1.14 1.14 0 0 0-1.131-1.147 1.14 1.14 0 0 0-1.131 1.147v1.148h-1.132v-1.148a1.14 1.14 0 0 0-1.13-1.147 1.14 1.14 0 0 0-1.132 1.147v1.148h-2.263a1.14 1.14 0 0 0-1.13 1.148 1.14 1.14 0 0 0 1.13 1.148h1.132v4.591h-1.132a1.14 1.14 0 0 0-1.13 1.148 1.14 1.14 0 0 0 1.13 1.148h1.132v4.591h-1.132a1.14 1.14 0 0 0-1.13 1.148 1.14 1.14 0 0 0 1.13 1.148h2.263v1.148a1.14 1.14 0 0 0 1.131 1.147 1.14 1.14 0 0 0 1.131-1.147v-1.148h1.132v1.148a1.14 1.14 0 0 0 1.13 1.147 1.14 1.14 0 0 0 1.132-1.147v-1.148c1.887.008 3.58-1.177 4.24-2.97a4.616 4.616 0 0 0-1.278-5.065 4.59 4.59 0 0 0 1.563-3.444Zm-2.263 6.886c0 1.268-1.012 2.296-2.262 2.296h-4.525v-4.591h4.525c1.25 0 2.262 1.028 2.262 2.295Zm-6.787-4.59V16.07h4.525c1.25 0 2.262 1.028 2.262 2.296 0 1.267-1.012 2.295-2.262 2.295h-4.525Z" fill="#90A1AE"/><path fill-rule="evenodd" clip-rule="evenodd" d="M54.427 58.54H43.115a1.14 1.14 0 0 0-1.131 1.147 1.14 1.14 0 0 0 1.13 1.148h11.313v2.296a2.269 2.269 0 0 0 1.343 2.097 2.218 2.218 0 0 0 2.448-.404l8.475-8.021a2.31 2.31 0 0 0 .749-1.697 2.31 2.31 0 0 0-.735-1.703l-8.504-8.048a2.237 2.237 0 0 0-2.434-.39 2.297 2.297 0 0 0-1.342 2.096v2.296H46.51a1.14 1.14 0 0 0-1.132 1.148 1.14 1.14 0 0 0 1.132 1.147h7.918c1.25 0 2.263-1.027 2.263-2.295l-.015-2.31 8.484 8.063-8.47 8.02v-2.295c0-1.268-1.012-2.296-2.262-2.296ZM9.927 23.512c.412.38.948.591 1.505.593.32 0 .636-.07.928-.204a2.268 2.268 0 0 0 1.343-2.092v-2.296h7.919a1.14 1.14 0 0 0 1.13-1.148 1.14 1.14 0 0 0-1.13-1.147h-7.919c-1.25 0-2.262 1.027-2.262 2.295l.014 2.31-8.484-8.063 8.47-8.02v2.295c0 1.268 1.012 2.296 2.262 2.296h11.312a1.14 1.14 0 0 0 1.131-1.148 1.14 1.14 0 0 0-1.13-1.148H13.702V5.739a2.297 2.297 0 0 0-1.35-2.103 2.237 2.237 0 0 0-2.44.408l-8.476 8.021a2.31 2.31 0 0 0-.749 1.697 2.311 2.311 0 0 0 .736 1.703l8.503 8.047Z" fill="#90A1AE"/></svg>
